assets/svgs/carlendar3.svg

<svg viewBox="0 0 1024 1024" xmlns="http://www.w3.org/2000/svg"><path d="m475.451077 588.012308h73.097846a36.233846 36.233846 0 0 0 36.548923-36.627693 36.233846 36.233846 0 0 0 -36.548923-36.78523h-73.097846a36.233846 36.233846 0 0 0 -36.548923 36.78523 36.233846 36.233846 0 0 0 36.548923 36.706462zm0 146.983384h73.097846a36.233846 36.233846 0 0 0 36.548923-36.78523 36.233846 36.233846 0 0 0 -36.548923-36.706462h-73.097846a36.233846 36.233846 0 0 0 -36.548923 36.706462 36.233846 36.233846 0 0 0 36.548923 36.78523zm402.038154-661.267692h-146.274462v-36.706462a36.233846 36.233846 0 0 0 -36.470154-36.78523 36.233846 36.233846 0 0 0 -36.470153 36.78523v36.706462h-292.470154v-36.706462a36.233846 36.233846 0 0 0 -36.548923-36.78523 36.233846 36.233846 0 0 0 -36.470154 36.78523v36.706462h-146.274462c-80.344615 0-146.195692 66.166154-146.195692 146.983385v587.69723c0 80.817231 65.772308 146.983385 146.195692 146.983385h730.820923c80.344615 0 146.195692-66.166154 146.195693-146.983385v-587.69723a146.983385 146.983385 0 0 0 -146.116923-146.983385zm73.097846 734.680615a73.491692 73.491692 0 0 1 -73.097846 73.491693h-730.978462a73.491692 73.491692 0 0 1 -73.097846-73.491693v-440.792615h877.016615v440.792615zm0-514.284307h-877.095385v-73.412923c0-40.408615 32.925538-73.491692 73.097846-73.491693h146.195693v36.706462a36.233846 36.233846 0 0 0 36.470154 36.785231 36.233846 36.233846 0 0 0 36.548923-36.785231v-36.627692h292.391384v36.706461a36.233846 36.233846 0 0 0 36.470154 36.785231 36.233846 36.233846 0 0 0 36.548923-36.785231v-36.706461h146.195693c40.172308 0 73.097846 33.083077 73.097846 73.491692v73.412923zm-694.350769 440.871384h73.019077a36.233846 36.233846 0 0 0 36.548923-36.78523 36.233846 36.233846 0 0 0 -36.548923-36.706462h-73.019077a36.233846 36.233846 0 0 0 -36.548923 36.706462 36.233846 36.233846 0 0 0 36.548923 36.78523zm438.429538-146.983384h73.097846a36.233846 36.233846 0 0 0 36.548923-36.627693 36.233846 36.233846 0 0 0 -36.548923-36.78523h-73.019077a36.233846 36.233846 0 0 0 -36.548923 36.78523 36.233846 36.233846 0 0 0 36.470154 36.706462zm-438.429538 0h73.019077a36.233846 36.233846 0 0 0 36.548923-36.627693 36.233846 36.233846 0 0 0 -36.548923-36.78523h-73.019077a36.233846 36.233846 0 0 0 -36.548923 36.78523 36.233846 36.233846 0 0 0 36.548923 36.706462zm438.429538 146.983384h73.097846a36.233846 36.233846 0 0 0 36.548923-36.78523 36.233846 36.233846 0 0 0 -36.548923-36.706462h-73.019077a36.233846 36.233846 0 0 0 -36.470153 36.706462 36.233846 36.233846 0 0 0 36.470153 36.78523z" fill="#878787"/></svg>

<svg xmlns="http://www.w3.org/2000/svg" viewBox="0 0 1024 1024" version="1.1"><path d="M475.451077 588.012308h73.097846A36.233846 36.233846 0 0 0 585.097846 551.384615a36.233846 36.233846 0 0 0-36.548923-36.78523h-73.097846A36.233846 36.233846 0 0 0 438.902154 551.384615a36.233846 36.233846 0 0 0 36.548923 36.706462z m0 146.983384h73.097846a36.233846 36.233846 0 0 0 36.548923-36.78523 36.233846 36.233846 0 0 0-36.548923-36.706462h-73.097846a36.233846 36.233846 0 0 0-36.548923 36.706462 36.233846 36.233846 0 0 0 36.548923 36.78523zM877.489231 73.728H731.214769V37.021538A36.233846 36.233846 0 0 0 694.744615 0.236308a36.233846 36.233846 0 0 0-36.470153 36.78523v36.706462H365.804308V37.021538A36.233846 36.233846 0 0 0 329.255385 0.236308a36.233846 36.233846 0 0 0-36.470154 36.78523v36.706462H146.510769c-80.344615 0-146.195692 66.166154-146.195692 146.983385v587.69723c0 80.817231 65.772308 146.983385 146.195692 146.983385h730.820923c80.344615 0 146.195692-66.166154 146.195693-146.983385V220.711385A146.983385 146.983385 0 0 0 877.410462 73.728z m73.097846 734.680615a73.491692 73.491692 0 0 1-73.097846 73.491693H146.510769a73.491692 73.491692 0 0 1-73.097846-73.491693V367.616h877.016615v440.792615z m0-514.284307H73.491692v-73.412923c0-40.408615 32.925538-73.491692 73.097846-73.491693h146.195693v36.706462a36.233846 36.233846 0 0 0 36.470154 36.785231 36.233846 36.233846 0 0 0 36.548923-36.785231V147.298462h292.391384v36.706461a36.233846 36.233846 0 0 0 36.470154 36.785231 36.233846 36.233846 0 0 0 36.548923-36.785231V147.298462h146.195693c40.172308 0 73.097846 33.083077 73.097846 73.491692v73.412923zM256.236308 734.995692h73.019077a36.233846 36.233846 0 0 0 36.548923-36.78523 36.233846 36.233846 0 0 0-36.548923-36.706462h-73.019077a36.233846 36.233846 0 0 0-36.548923 36.706462 36.233846 36.233846 0 0 0 36.548923 36.78523z m438.429538-146.983384h73.097846A36.233846 36.233846 0 0 0 804.312615 551.384615a36.233846 36.233846 0 0 0-36.548923-36.78523H694.744615A36.233846 36.233846 0 0 0 658.195692 551.384615a36.233846 36.233846 0 0 0 36.470154 36.706462z m-438.429538 0h73.019077A36.233846 36.233846 0 0 0 365.804308 551.384615a36.233846 36.233846 0 0 0-36.548923-36.78523h-73.019077A36.233846 36.233846 0 0 0 219.687385 551.384615a36.233846 36.233846 0 0 0 36.548923 36.706462z m438.429538 146.983384h73.097846a36.233846 36.233846 0 0 0 36.548923-36.78523 36.233846 36.233846 0 0 0-36.548923-36.706462H694.744615a36.233846 36.233846 0 0 0-36.470153 36.706462 36.233846 36.233846 0 0 0 36.470153 36.78523z" fill="#878787" p-id="7053"></path></svg>
